static/logos/uber-wordmark-color.svg

<svg width="87" height="30" viewBox="0 0 87 30" fill="none" xmlns="http://www.w3.org/2000/svg">
<g clip-path="url(#clip0_1_565)">
<path d="M4.97189 21.4256C5.33708 22.3948 5.84268 23.2234 6.48878 23.9116C7.13488 24.5998 7.90032 25.1265 8.78509 25.4917C9.66996 25.8568 10.632 26.0394 11.6714 26.0394C12.6827 26.0394 13.6307 25.8498 14.5155 25.4705C15.4004 25.0912 16.1728 24.5576 16.8329 23.8694C17.493 23.1812 18.0057 22.3596 18.3709 21.4045C18.7361 20.4495 18.9186 19.3821 18.9186 18.2023V0H23.3427V29.4944H18.9607V26.7556C17.9776 27.7949 16.8188 28.5955 15.4846 29.1574C14.1502 29.7191 12.7107 30 11.1658 30C9.59267 30 8.12501 29.7261 6.7626 29.1783C5.40029 28.6306 4.22044 27.8512 3.22332 26.8399C2.2262 25.8286 1.4396 24.6139 0.863797 23.1953C0.287901 21.7767 0 20.1967 0 18.455V0H4.42415V18.2023C4.42415 19.3821 4.6067 20.4565 4.97189 21.4256Z" fill="#010202"/>
<path d="M30.9665 0V10.7444C31.9497 9.76123 33.0874 8.98181 34.3795 8.40592C35.6716 7.83002 37.0761 7.54212 38.5929 7.54212C40.166 7.54212 41.6406 7.83701 43.0171 8.42689C44.3935 9.01677 45.5872 9.81736 46.5985 10.8286C47.6098 11.8399 48.4104 13.0337 49.0003 14.4101C49.5901 15.7866 49.885 17.2472 49.885 18.7922C49.885 20.337 49.5901 21.7907 49.0003 23.153C48.4104 24.5154 47.6098 25.7023 46.5985 26.7134C45.5872 27.7247 44.3935 28.5253 43.0171 29.1151C41.6406 29.705 40.1659 29.9999 38.5929 29.9999C37.076 29.9999 35.6646 29.712 34.3584 29.1361C33.0522 28.5603 31.9075 27.7808 30.9244 26.7977V29.4943H26.7109V0H30.9665ZM31.4511 21.6994C31.8302 22.5984 32.357 23.3849 33.0312 24.0591C33.7053 24.7332 34.4918 25.267 35.3907 25.6602C36.2896 26.0535 37.2587 26.2501 38.298 26.2501C39.3093 26.2501 40.2643 26.0535 41.1632 25.6602C42.062 25.267 42.8414 24.7333 43.5017 24.0591C44.1618 23.385 44.6884 22.5984 45.0817 21.6994C45.475 20.8006 45.6716 19.8315 45.6716 18.7922C45.6716 17.7528 45.475 16.7767 45.0817 15.8638C44.6884 14.9508 44.1618 14.1573 43.5017 13.4832C42.8415 12.8091 42.0621 12.2823 41.1632 11.9032C40.2642 11.524 39.3092 11.3342 38.298 11.3342C37.2868 11.3342 36.3318 11.5239 35.4329 11.9032C34.5341 12.2824 33.7475 12.8091 33.0733 13.4832C32.3992 14.1573 31.8655 14.9508 31.4722 15.8638C31.079 16.7767 30.8823 17.7528 30.8823 18.7922C30.8822 19.8315 31.0719 20.8006 31.4511 21.6994Z" fill="#010202"/>
<path d="M52.2879 14.4523C52.8496 13.104 53.6222 11.9173 54.6052 10.892C55.5883 9.86671 56.7541 9.05913 58.1025 8.46925C59.4508 7.87937 60.9115 7.58447 62.4845 7.58447C64.0294 7.58447 65.462 7.86538 66.7823 8.42711C68.1025 8.98892 69.2401 9.76844 70.1952 10.7657C71.1502 11.7628 71.8947 12.9426 72.4283 14.3049C72.962 15.6673 73.2288 17.1491 73.2288 18.7503V20.1407H55.7429C55.8834 21.0115 56.1644 21.8191 56.5857 22.5634C57.0071 23.3077 57.5337 23.9538 58.1657 24.5016C58.7977 25.0494 59.514 25.4778 60.3146 25.7867C61.1152 26.0956 61.9648 26.2502 62.8638 26.2502C65.42 26.2502 67.4846 25.1968 69.0576 23.09L72.1335 25.3653C71.066 26.7979 69.7459 27.9215 68.1729 28.7361C66.5998 29.5506 64.8301 29.958 62.8638 29.958C61.2627 29.958 59.7669 29.677 58.3765 29.1153C56.986 28.5535 55.7782 27.7669 54.7529 26.7556C53.7276 25.7443 52.9201 24.5576 52.3302 23.1953C51.7403 21.833 51.4453 20.3511 51.4453 18.7501C51.4451 17.2333 51.7261 15.8007 52.2879 14.4523ZM58.2078 12.788C57.014 13.7852 56.2205 15.1124 55.8272 16.7697H68.9312C68.566 15.1124 67.7865 13.7852 66.5927 12.788C65.3988 11.7908 64.0014 11.2922 62.4003 11.2922C60.7991 11.2922 59.4017 11.7908 58.2078 12.788Z" fill="#010202"/>
<path d="M81.1899 13.2725C80.2911 14.2556 79.8416 15.5899 79.8416 17.2753V29.4945H75.5859V8.00569H79.7994V10.6602C80.3331 9.78941 81.0284 9.10117 81.8851 8.59557C82.7418 8.08988 83.7601 7.83704 84.9399 7.83704H86.4146V11.7977H84.6449C83.2405 11.7978 82.0888 12.2893 81.1899 13.2725Z" fill="#010202"/>
</g>
<defs>
<clipPath id="clip0_1_565">
<rect width="86.4175" height="30" fill="white"/>
</clipPath>
</defs>
</svg>

<svg xmlns="http://www.w3.org/2000/svg" width="185.6" height="64" fill="none" viewBox="0 0 87 30"><g fill="#010202" clip-path="url(#a)"><path d="M4.972 21.426c.365.969.87 1.797 1.517 2.486a6.528 6.528 0 0 0 2.296 1.58c.885.365 1.847.547 2.886.547 1.012 0 1.96-.19 2.845-.569a6.996 6.996 0 0 0 2.317-1.6 7.259 7.259 0 0 0 1.538-2.466c.365-.954.548-2.022.548-3.202V0h4.424v29.494H18.96v-2.738a10.157 10.157 0 0 1-3.476 2.401c-1.335.562-2.774.843-4.32.843-1.572 0-3.04-.274-4.402-.822a10.309 10.309 0 0 1-3.54-2.338c-.997-1.011-1.783-2.226-2.36-3.645C.289 21.777 0 20.197 0 18.455V0h4.424v18.202c0 1.18.183 2.254.548 3.224ZM30.966 0v10.744a11.27 11.27 0 0 1 3.413-2.338c1.293-.576 2.697-.864 4.214-.864 1.573 0 3.048.295 4.424.885 1.377.59 2.57 1.39 3.581 2.402A11.304 11.304 0 0 1 49 14.41c.59 1.377.885 2.837.885 4.382 0 1.545-.295 2.999-.885 4.361a11.366 11.366 0 0 1-2.401 3.56 11.302 11.302 0 0 1-3.582 2.402c-1.376.59-2.851.885-4.424.885-1.517 0-2.928-.288-4.235-.864a11.193 11.193 0 0 1-3.434-2.338v2.696h-4.213V0h4.256Zm.485 21.7a7.33 7.33 0 0 0 1.58 2.36 7.623 7.623 0 0 0 2.36 1.6c.899.393 1.868.59 2.907.59a7.07 7.07 0 0 0 2.865-.59 7.371 7.371 0 0 0 2.339-1.6 7.815 7.815 0 0 0 1.58-2.36c.393-.9.59-1.869.59-2.908 0-1.04-.197-2.015-.59-2.928a7.743 7.743 0 0 0-1.58-2.38 7.093 7.093 0 0 0-2.339-1.58 7.296 7.296 0 0 0-2.865-.57c-1.011 0-1.966.19-2.865.57a7.334 7.334 0 0 0-2.36 1.58 7.557 7.557 0 0 0-1.6 2.38 7.323 7.323 0 0 0-.59 2.928 7.4 7.4 0 0 0 .568 2.907ZM52.288 14.452a11.463 11.463 0 0 1 2.317-3.56 10.766 10.766 0 0 1 3.498-2.423c1.348-.59 2.808-.885 4.381-.885 1.545 0 2.978.281 4.298.843a10.193 10.193 0 0 1 3.413 2.339c.955.997 1.7 2.177 2.233 3.539.534 1.362.8 2.844.8 4.445v1.39H55.744a7.306 7.306 0 0 0 2.423 4.36 7.222 7.222 0 0 0 2.149 1.287c.8.309 1.65.463 2.549.463 2.556 0 4.62-1.053 6.194-3.16l3.075 2.275a11.445 11.445 0 0 1-3.96 3.371c-1.573.815-3.343 1.222-5.31 1.222-1.6 0-3.096-.281-4.486-.843a10.929 10.929 0 0 1-3.624-2.36 11.194 11.194 0 0 1-2.423-3.56c-.59-1.362-.885-2.844-.885-4.445 0-1.517.281-2.95.843-4.298Zm5.92-1.664c-1.194.997-1.987 2.324-2.38 3.982H68.93c-.365-1.658-1.144-2.985-2.338-3.982-1.194-.997-2.592-1.496-4.193-1.496-1.6 0-2.998.499-4.192 1.496ZM81.19 13.273c-.899.983-1.348 2.317-1.348 4.002v12.22h-4.256V8.005h4.213v2.655a5.989 5.989 0 0 1 2.086-2.064c.857-.506 1.875-.759 3.055-.759h1.475v3.96h-1.77c-1.404 0-2.556.492-3.455 1.476Z"/></g><defs><clipPath id="a"><path fill="#fff" d="M0 0h86.418v30H0z"/></clipPath></defs></svg>
